X: 11007
T: AUNTY LEE'S JIG
C: Bob McQuillen 15 Aug'01
B: Bob's Note Book 11 #7
R: jig
Z: 2020 John Chambers <jc:trillian.mit.edu>
M: 6/8
L: 1/8
K: D
D \
| DEF EDF | AFA BAF | AdA BAF | FED E2F |\
| DEF EDF | Adf ede | fdB AFE | FDD D2 :|
|: d \
| cde ABc | dBd AFD | cde gfe | dfd A2d |\
| cde ABc | dBd AFD | BGB Agf | edc d2 :|
%%begintext align
%% Aunty Lee, of
%% Taunton, MA, is Mrs. George McBride, and so, of course,
%% that makes her Jane (McBride) Orzechowski's (she's Mrs.
%% Peter Orzechowski) sister-in-law. And since the McB's
%% have 4 kids and the O'skis have 5 kids, that makes everybody
%% a cousin or an Aunt or an Uncle or a something to _somebody_,
%% and you don't know it, but we've only just begun this thing!
%% Stay tuned!
%%endtext

%%sep 1 1 500

%%sep 1 1 500

